assets/svg/1f1f8-1f1fe.svg

<svg xmlns="http://www.w3.org/2000/svg" viewBox="0 0 64 64" enable-background="new 0 0 64 64"><path fill="#3e4347" d="m32 62c13.06 0 24.17-8.35 28.29-20h-56.57c4.119 11.65 15.225 20 28.29 20"/><path fill="#ed4c5c" d="M32,2C18.939,2,7.833,10.35,3.714,22h56.572C56.167,10.35,45.061,2,32,2z"/><path fill="#f9f9f9" d="M60.286,42C61.393,38.871,62,35.508,62,32s-0.607-6.871-1.714-10H3.714C2.607,25.129,2,28.492,2,32
			s0.607,6.871,1.714,10H60.286z"/><g fill="#75a843"><path d="m21 35.19l4.326 2.81-1.634-4.578 4.308-2.922h-5.336l-1.664-4.5-1.614 4.5h-5.386l4.309 2.922-1.635 4.578z"/><path d="m43 35.19l4.33 2.81-1.638-4.578 4.308-2.922h-5.336l-1.664-4.5-1.61 4.5h-5.39l4.31 2.922-1.636 4.578z"/></g></svg>

<svg xmlns="http://www.w3.org/2000/svg" width="64" height="64" viewBox="0 0 64 64"><path fill="#3E4347" d="M32 62c13.061 0 24.167-8.35 28.286-20H3.714C7.833 53.65 18.939 62 32 62z"/><path fill="#ED4C5C" d="M32 2C18.939 2 7.833 10.35 3.714 22h56.572C56.167 10.35 45.061 2 32 2z"/><path fill="#F9F9F9" d="M60.286 42C61.393 38.871 62 35.508 62 32s-.607-6.871-1.714-10H3.714C2.607 25.129 2 28.492 2 32s.607 6.871 1.714 10h56.572z"/><path fill="#75A843" d="M21 35.186L25.326 38l-1.634-4.578L28 30.5h-5.336L21 26l-1.614 4.5H14l4.309 2.922L16.674 38zM43 35.186L47.326 38l-1.634-4.578L50 30.5h-5.336L43 26l-1.614 4.5H36l4.309 2.922L38.674 38z"/></svg>
